Yaru++/actions/symbolic/appointment-new-symbolic.svg

<svg height="16" width="16" xmlns="http://www.w3.org/2000/svg">
  <path d="m6 0-1 .25v.75h1zm0 1v1h-1v-1h-.006c-1.258.015-2.179-.03-2.932.385-.376.207-.675.56-.84.998-.164.438-.222.96-.222 1.617v8c0 .658.058 1.179.223 1.617.164.439.463.789.84.996.752.416 1.673.372 2.931.387h5.006v-1h-5c-1.26-.015-2.087-.06-2.453-.262-.184-.1-.29-.212-.387-.472s-.16-.674-.16-1.266v-5c0-.592.063-1.006.16-1.266.098-.26.203-.371.387-.472.367-.203 1.195-.247 2.459-.262h5.994c1.26.015 2.087.06 2.453.262.184.1.29.212.387.472s.16 1.266.16 1.266v3h1v-6c0-.658-.06-1.179-.225-1.617a1.88 1.88 0 0 0 -.837-.998c-.753-.416-1.674-.37-2.932-.385h-.006v1h-1v-1zm4 0h1v-1l-1 .25zm3 10v2h-2v1h2v2h1v-2h2v-1h-2v-2z" fill="#808080"/>
</svg>

<svg height="16" width="16" xmlns="http://www.w3.org/2000/svg">
    <path d="M6 0L5 .25V1h1zm0 1v1H5V1h-.006c-1.258.015-2.179-.03-2.932.385-.376.207-.675.56-.84.998C1.058 2.821 1 3.343 1 4v8c0 .658.058 1.179.223 1.617.164.439.463.789.84.996.752.416 1.673.372 2.931.387H10v-1H5c-1.26-.015-2.087-.06-2.453-.262-.184-.1-.29-.212-.387-.472C2.063 13.006 2 12.592 2 12V7c0-.592.063-1.006.16-1.266.098-.26.203-.371.387-.472.367-.203 1.195-.247 2.459-.262H11c1.26.015 2.087.06 2.453.262.184.1.29.212.387.472C13.937 5.994 14 7 14 7v3h1V4c0-.658-.06-1.179-.225-1.617a1.88 1.88 0 0 0-.837-.998c-.753-.416-1.674-.37-2.932-.385H11v1h-1V1zm4 0h1V0l-1 .25zm3 10v2h-2v1h2v2h1v-2h2v-1h-2v-2z" fill="gray" font-family="sans-serif" font-weight="400" overflow="visible" style="line-height:normal;text-indent:0;text-align:start;text-decoration-line:none;text-decoration-style:solid;text-decoration-color:#000;text-transform:none;isolation:auto;mix-blend-mode:normal;marker:none" white-space="normal" color="#000"/>
</svg>
